public/about/comic-bubbles/comic-bubble1.svg

<svg width="201" height="139" viewBox="0 0 201 139" fill="none" xmlns="http://www.w3.org/2000/svg">
<g clip-path="url(#clip0_6_2)">
<path d="M14.9506 92.7208C23.5067 64.9069 12.0985 45.8294 5.32488 39.7674C45.9666 38.4836 54.3445 18.1937 53.4532 8.20921C67.1431 27.465 110.494 21.2248 130.459 15.6976C120.191 43.0836 163.97 60.9844 187.143 66.5115C158.052 90.0464 167.536 110.551 175.913 117.86C139.122 107.591 123.151 125.705 119.763 136.046C105.218 114.223 79.4782 121.248 68.4265 127.488C62.865 89.4046 30.4586 88.4418 14.9506 92.7208Z" fill="#F7F7F7"/>
<path d="M11.9879 23.205C22.5047 24.6314 43.6456 22.8841 44.0734 4.48411M1.29266 48.8795C6.462 54.2283 15.0895 67.7074 8.24454 78.833M28.5654 102.903C38.1911 103.081 57.3354 108.252 56.9076 127.507M86.8542 129.647C93.2713 128.221 107.282 127.935 111.988 138.205M129.635 134.461C134.269 127.151 149.421 115.312 172.95 126.438M179.902 97.5539C177.05 91.8485 177.122 78.726 200.223 71.8795M191.667 52.0888C187.389 55.1197 175.517 58.4004 162.255 47.2748M151.56 37.112C145.143 35.8639 133.592 30.0516 138.726 16.7864M94.8755 9.29806C86.1411 12.5074 66.3194 15.5027 56.9076 1.80969M6.1055 39.7864C12.8791 45.8485 24.2873 64.926 15.7312 92.7399C31.2392 88.4609 63.6456 89.4237 69.2071 127.507C80.2588 121.267 105.999 114.242 120.544 136.066C123.931 125.724 139.902 107.61 176.694 117.879C168.316 110.57 158.833 90.0655 187.924 66.5306C164.75 61.0035 120.972 43.1027 131.239 15.7167C111.274 21.2438 67.9237 27.4841 54.2338 8.2283C55.1251 18.2128 46.7472 38.5027 6.1055 39.7864Z" stroke="black"/>
<path d="M32.0207 49.5897L32.2219 48.8348L29.9573 48.2311L29.756 48.986C27.68 48.6858 26.3716 49.5498 25.8308 51.5779C25.2271 53.8426 26.0575 55.2768 28.3222 55.8805L29.8319 56.283C30.5868 56.4843 30.8636 56.9624 30.6624 57.7173C30.4611 58.4721 29.983 58.7489 29.2282 58.5477L27.7184 58.1452C26.9635 57.9439 26.6532 57.5917 26.7873 57.0884L24.5227 56.4846C24.0491 58.2611 24.7872 59.536 26.7372 60.3092L26.5359 61.0641L28.8006 61.6678L29.0018 60.913C31.0779 61.2131 32.3863 60.3491 32.927 58.321C33.5308 56.0564 32.7003 54.6222 30.4357 54.0184L28.9259 53.6159C28.1711 53.4146 27.8942 52.9366 28.0955 52.1817C28.2968 51.4268 28.7748 51.15 29.5297 51.3512L31.0395 51.7538C31.7943 51.955 32.1047 52.3073 31.9705 52.8105L34.2352 53.4143C34.7088 51.6378 33.9706 50.3629 32.0207 49.5897ZM25.7994 55.4262C24.8475 54.4879 24.6064 53.138 25.076 51.3766C25.7347 48.9057 27.1022 47.8203 29.1783 48.1204L29.4037 47.2749L33.1781 48.2812L32.9527 49.1267C33.3382 49.278 33.6725 49.4695 33.9557 49.7013L34.0085 49.7154L34.0025 49.7381C34.4762 50.1447 34.9451 50.7009 35.4091 51.4068C36.1007 52.2703 36.1707 53.7363 35.6192 55.8046L33.5358 55.2492C33.6217 55.4122 33.7698 55.5945 33.9802 55.7962C34.8045 56.8083 34.9819 58.1951 34.5123 59.9565C33.8536 62.4275 32.4861 63.5129 30.41 63.2127L30.1846 64.0582L26.4102 63.0519L26.6356 62.2064C26.2501 62.0552 25.9158 61.8636 25.6326 61.6318L25.5798 61.6177L25.5858 61.5951C25.1121 61.1885 24.6667 60.7463 24.2496 60.2686C23.5111 59.1769 23.4176 57.5969 23.9691 55.5285L26.0525 56.084C25.9458 55.8776 25.8614 55.6584 25.7994 55.4262ZM42.2116 52.3067L40.7018 51.9042C38.4372 51.3004 37.003 52.1309 36.3992 54.3955C36.1711 55.251 36.1611 56.0569 36.3691 56.8131C35.8122 57.3654 35.4198 58.0693 35.1917 58.9248C34.5879 61.1894 35.4183 62.6236 37.683 63.2274L39.1927 63.6299C41.4574 64.2337 42.8916 63.4033 43.4954 61.1386C43.7235 60.2831 43.7335 59.4772 43.5254 58.721C44.0823 58.1688 44.4748 57.4649 44.7029 56.6093C45.3067 54.3447 44.4762 52.9105 42.2116 52.3067ZM40.4003 59.1006C41.1552 59.3019 41.432 59.78 41.2307 60.5348C41.0295 61.2897 40.5514 61.5665 39.7965 61.3653L38.2867 60.9628C37.5319 60.7615 37.2551 60.2834 37.4563 59.5286C37.6576 58.7737 38.1356 58.4969 38.8905 58.6981L40.4003 59.1006ZM42.4383 56.0055C42.237 56.7604 41.7589 57.0372 41.0041 56.836L39.4943 56.4335C38.7394 56.2322 38.4626 55.7541 38.6638 54.9993C38.8651 54.2444 39.3432 53.9676 40.0981 54.1688L41.6078 54.5713C42.3627 54.7726 42.6395 55.2507 42.4383 56.0055ZM34.7012 63.0389C34.0553 61.9234 33.9672 60.4849 34.4368 58.7235C34.7024 57.7271 35.0547 57.0125 35.4935 56.5796C35.3284 55.9858 35.3787 55.1907 35.6443 54.1942C36.3823 51.4263 38.1352 50.4114 40.9031 51.1493L42.4128 51.5518C44.1742 52.0214 45.3779 52.814 46.0238 53.9295C46.6697 55.0449 46.7578 56.4834 46.2882 58.2448C46.0226 59.2412 45.6703 59.9559 45.2315 60.3887C45.3966 60.9825 45.3463 61.7776 45.0807 62.7741C44.3427 65.542 42.5898 66.557 39.8219 65.819L38.3122 65.4165C36.5508 64.9469 35.3471 64.1544 34.7012 63.0389ZM46.5152 68.0078L47.7228 63.4785L45.4581 62.8747L44.2506 67.404L46.5152 68.0078ZM43.2945 67.9576L44.9045 61.9186L48.6789 62.9249L49.5094 64.3591L47.8993 70.3981L44.1249 69.3918L43.2945 67.9576ZM57.3092 56.3318L55.7995 55.9293C53.5348 55.3255 52.1006 56.156 51.4968 58.4206C51.2688 59.2762 51.2587 60.082 51.4668 60.8382C50.9099 61.3905 50.5174 62.0944 50.2893 62.9499C49.6855 65.2146 50.516 66.6488 52.7806 67.2525L54.2904 67.6551C56.555 68.2588 57.9892 67.4284 58.593 65.1637C58.8211 64.3082 58.8311 63.5023 58.6231 62.7461C59.18 62.1939 59.5725 61.49 59.8006 60.6345C60.4043 58.3698 59.5739 56.9356 57.3092 56.3318ZM55.4979 63.1258C56.2528 63.327 56.5296 63.8051 56.3284 64.56C56.1271 65.3149 55.649 65.5917 54.8942 65.3904L53.3844 64.9879C52.6295 64.7866 52.3527 64.3086 52.554 63.5537C52.7552 62.7988 53.2333 62.522 53.9882 62.7233L55.4979 63.1258ZM57.5359 60.0307C57.3346 60.7856 56.8566 61.0624 56.1017 60.8611L54.5919 60.4586C53.8371 60.2573 53.5602 59.7793 53.7615 59.0244C53.9628 58.2695 54.4408 57.9927 55.1957 58.194L56.7055 58.5965C57.4603 58.7977 57.7372 59.2758 57.5359 60.0307ZM49.7989 67.064C49.153 65.9485 49.0648 64.5101 49.5344 62.7487C49.8001 61.7522 50.1523 61.0376 50.5911 60.6048C50.426 60.011 50.4763 59.2158 50.742 58.2194C51.4799 55.4515 53.2328 54.4365 56.0007 55.1744L57.5105 55.5769C59.2719 56.0465 60.4755 56.8391 61.1214 57.9546C61.7673 59.0701 61.8555 60.5085 61.3859 62.2699C61.1202 63.2664 60.768 63.981 60.3292 64.4138C60.4943 65.0076 60.444 65.8028 60.1783 66.7992C59.4404 69.5671 57.6875 70.5821 54.9196 69.8442L53.4098 69.4416C51.6484 68.972 50.4448 68.1795 49.7989 67.064ZM67.8776 59.1494L66.3678 58.7469C64.1032 58.1431 62.669 58.9736 62.0652 61.2382L60.8577 65.7675C60.2539 68.0322 61.0843 69.4664 63.349 70.0701L64.8587 70.4727C67.1234 71.0764 68.5576 70.246 69.1614 67.9813L70.3689 63.452C70.9727 61.1874 70.1422 59.7532 67.8776 59.1494ZM68.1043 62.8483L66.8967 67.3776C66.6955 68.1324 66.2174 68.4093 65.4625 68.208L63.9527 67.8055C63.1979 67.6042 62.9211 67.1262 63.1223 66.3713L64.3298 61.842C64.5311 61.0871 65.0092 60.8103 65.7641 61.0116L67.2738 61.4141C68.0287 61.6153 68.3055 62.0934 68.1043 62.8483ZM64.9089 67.2519L65.6638 67.4531C65.9154 67.5202 66.0748 67.4279 66.1418 67.1763L67.1481 63.4019C66.3932 63.2006 65.9152 63.4775 65.7139 64.2323L64.9089 67.2519ZM60.3672 69.8816C59.7213 68.7661 59.6332 67.3276 60.1028 65.5663L61.3103 61.037C62.0483 58.2691 63.8012 57.2541 66.5691 57.992L68.0788 58.3945C69.8402 58.8641 71.0439 59.6567 71.6898 60.7722C72.3357 61.8877 72.4238 63.3261 71.9542 65.0875L70.7467 69.6168C70.0087 72.3847 68.2558 73.3997 65.4879 72.6617L63.9782 72.2592C62.2168 71.7896 61.0131 70.9971 60.3672 69.8816ZM78.4459 61.967L76.9362 61.5645C74.6715 60.9607 73.2373 61.7912 72.6336 64.0558L71.426 68.5851C70.8222 70.8498 71.6527 72.284 73.9173 72.8877L75.4271 73.2902C77.6917 73.894 79.1259 73.0636 79.7297 70.7989L80.9373 66.2696C81.541 64.005 80.7106 62.5708 78.4459 61.967ZM78.6726 65.6659L77.4651 70.1952C77.2638 70.95 76.7857 71.2269 76.0309 71.0256L74.5211 70.6231C73.7662 70.4218 73.4894 69.9438 73.6907 69.1889L74.8982 64.6596C75.0995 63.9047 75.5775 63.6279 76.3324 63.8291L77.8422 64.2317C78.5971 64.4329 78.8739 64.911 78.6726 65.6659ZM75.4772 70.0695L76.2321 70.2707C76.4837 70.3378 76.6431 70.2455 76.7102 69.9939L77.7165 66.2195C76.9616 66.0182 76.4835 66.295 76.2823 67.0499L75.4772 70.0695ZM70.9356 72.6992C70.2897 71.5837 70.2015 70.1452 70.6711 68.3838L71.8787 63.8546C72.6166 61.0867 74.3695 60.0717 77.1374 60.8096L78.6472 61.2121C80.4086 61.6817 81.6122 62.4743 82.2581 63.5898C82.904 64.7053 82.9922 66.1437 82.5226 67.9051L81.315 72.4344C80.5771 75.2023 78.8242 76.2173 76.0563 75.4793L74.5465 75.0768C72.7851 74.6072 71.5815 73.8147 70.9356 72.6992ZM87.1882 76.4258L90.207 65.1026L87.9424 64.4988L84.9235 75.8221L87.1882 76.4258ZM83.9674 76.3757L87.3887 63.5427L91.1631 64.549L91.9936 65.9832L88.5722 78.8162L84.7978 77.8099L83.9674 76.3757ZM93.5368 70.8092L95.2956 78.5873L97.7565 79.2434L100.775 67.9202L98.5107 67.3164L96.6914 74.1405L94.9326 66.3625L92.4717 65.7064L89.4528 77.0296L91.7175 77.6334L93.5368 70.8092ZM94.6414 79.2214L94.0313 76.5361L93.1015 80.0237L89.3271 79.0174L88.4967 77.5832L91.918 64.7502L95.5868 65.7283L96.4172 67.1625L97.0273 69.8478L97.9571 66.3603L101.732 67.3666L102.562 68.8008L99.1406 81.6338L95.4719 80.6557L94.6414 79.2214ZM106.875 69.5463L103.856 80.8696L106.121 81.4733L107.328 76.944L109.97 77.6484C112.235 78.2522 113.669 77.4218 114.273 75.1571C114.877 72.8925 114.046 71.4583 111.782 70.8545L106.875 69.5463ZM108.536 72.4147L111.178 73.1191C111.933 73.3204 112.209 73.7985 112.008 74.5534C111.807 75.3082 111.329 75.585 110.574 75.3838L107.932 74.6794L108.536 72.4147ZM102.9 81.4232L106.321 68.5902L111.983 70.0996C113.744 70.5692 114.948 71.3618 115.594 72.4773C116.24 73.5927 116.328 75.0312 115.858 76.7926C115.12 79.5605 113.367 80.5755 110.599 79.8375L108.712 79.3344L107.505 83.8637L103.73 82.8574L102.9 81.4232ZM117.443 72.3639L114.424 83.6872L116.689 84.2909L117.897 79.7616L118.953 80.0434L120.365 85.271L122.977 85.9674L121.551 80.6713C123.28 80.6148 124.377 79.716 124.841 77.9747C125.445 75.7101 124.615 74.2759 122.35 73.6721L117.443 72.3639ZM119.104 75.2323L121.746 75.9367C122.501 76.138 122.778 76.6161 122.577 77.3709C122.375 78.1258 121.897 78.4026 121.142 78.2014L118.5 77.497L119.104 75.2323ZM126.162 75.2948C126.808 76.4103 126.896 77.8488 126.427 79.6102C125.863 81.7238 124.852 82.8072 123.393 82.8603L124.92 88.5067L120.557 87.3434L119.726 85.9092L118.999 83.2088L118.073 86.6813L114.299 85.675L113.468 84.2408L116.89 71.4078L122.551 72.9172C124.313 73.3868 125.516 74.1794 126.162 75.2948ZM127.257 87.1085L130.276 75.7853L128.012 75.1815L124.993 86.5047L127.257 87.1085ZM124.037 87.0584L127.458 74.2254L131.232 75.2317L132.063 76.6659L128.641 89.4989L124.867 88.4926L124.037 87.0584ZM136.564 79.8874L129.499 87.7062L137.448 89.8255L138.052 87.5608L133.802 86.4278L140.867 78.6089L132.918 76.4897L132.314 78.7543L136.564 79.8874ZM128.06 88.1311L134.242 81.2896L132.189 80.7422L131.358 79.308L132.365 75.5335L142.306 78.1841L143.137 79.6183L136.955 86.4598L139.008 87.0072L139.839 88.4414L138.832 92.2158L128.89 89.5653L128.06 88.1311ZM142.959 88.869L143.563 86.6044L148.092 87.8119L148.696 85.5472L144.166 84.3397L144.77 82.0751L150.054 83.4839L150.658 81.2192L143.109 79.2066L140.09 90.5299L147.639 92.5424L148.243 90.2778L142.959 88.869ZM149.551 85.3711L150.482 86.4278L149.476 90.2022L150.029 91.1584L149.023 94.9328L139.965 92.5177L139.134 91.0835L142.556 78.2505L151.614 80.6656L152.445 82.0998L151.438 85.8742L149.551 85.3711ZM157.829 83.1311L156.32 82.7286C154.055 82.1249 152.621 82.9553 152.017 85.2199C151.413 87.4846 152.244 88.9188 154.508 89.5226L156.018 89.9251C156.773 90.1263 157.05 90.6044 156.849 91.3593C156.647 92.1142 156.169 92.391 155.414 92.1897L153.905 91.7872C153.15 91.586 152.839 91.2337 152.973 90.7305L150.709 90.1267C150.172 92.1397 151.036 93.4481 153.301 94.0519L154.811 94.4544C157.075 95.0581 158.509 94.2277 159.113 91.9631C159.717 89.6984 158.886 88.2642 156.622 87.6604L155.112 87.2579C154.357 87.0567 154.08 86.5786 154.282 85.8237C154.483 85.0688 154.961 84.792 155.716 84.9933L157.226 85.3958C157.98 85.597 158.291 85.9493 158.157 86.4526L160.421 87.0563C160.958 85.0433 160.094 83.7349 157.829 83.1311ZM151.985 89.0683C151.034 88.1299 150.792 86.7801 151.262 85.0187C152 82.2508 153.753 81.2358 156.521 81.9737L158.031 82.3763C159.717 82.8257 160.897 83.6255 161.571 84.7755C162.252 85.9219 162.33 87.4789 161.805 89.4467L159.722 88.8912C160.473 89.6306 160.874 90.4113 160.925 91.2333C160.975 92.0552 160.9 92.8436 160.698 93.5985C159.961 96.3664 158.208 97.3814 155.44 96.6435L153.93 96.241C152.244 95.7915 151.061 94.9911 150.382 93.8397C149.706 92.6946 149.631 91.1383 150.155 89.1705L152.239 89.726C152.132 89.5197 152.048 89.3004 151.985 89.0683Z" fill="black"/>
</g>
<defs>
<clipPath id="clip0_6_2">
<rect width="200" height="138" fill="white" transform="translate(0.399918 0.91037)"/>
</clipPath>
</defs>
</svg>

<svg xmlns="http://www.w3.org/2000/svg" width="201" height="139" fill="none"><g clip-path="url(#a)"><path fill="#F7F7F7" d="M14.95 92.72c8.557-27.813-2.851-46.89-9.625-52.953 40.642-1.283 49.02-21.573 48.128-31.558 13.69 19.256 57.041 13.016 77.006 7.489-10.268 27.386 33.511 45.286 56.684 50.813-29.091 23.535-19.607 44.04-11.23 51.349-36.791-10.269-52.762 7.845-56.15 18.186-14.545-21.823-40.285-14.798-51.337-8.558-5.561-38.083-37.967-39.046-53.475-34.767Z"/><path stroke="#000" d="M11.988 23.205c10.517 1.426 31.658-.32 32.085-18.72M1.293 48.88c5.169 5.348 13.796 18.827 6.952 29.953m20.32 24.07c9.626.178 28.77 5.349 28.343 24.604m29.946 2.14c6.417-1.426 20.428-1.712 25.134 8.558m17.647-3.744c4.634-7.31 19.786-19.149 43.315-8.023m6.952-28.884c-2.852-5.706-2.78-18.828 20.321-25.675m-8.556-19.79c-4.278 3.03-16.15 6.311-29.412-4.814M151.56 37.112c-6.417-1.248-17.968-7.06-12.834-20.326m-43.85-7.488c-8.735 3.21-28.557 6.205-37.968-7.488M6.105 39.786c6.774 6.063 18.182 25.14 9.626 52.954 15.508-4.28 47.915-3.316 53.476 34.767 11.052-6.24 36.792-13.265 51.337 8.559 3.387-10.342 19.358-28.456 56.15-18.187-8.378-7.309-17.861-27.814 11.23-51.348-23.174-5.528-66.952-23.428-56.685-50.814-19.965 5.527-63.315 11.767-77.005-7.489.891 9.985-7.487 30.275-48.129 31.558Z"/><path fill="#000" d="m32.02 49.59.202-.755-2.265-.604-.201.755c-2.076-.3-3.384.564-3.925 2.592-.604 2.265.227 3.699 2.491 4.302l1.51.403c.755.201 1.032.68.83 1.434-.2.755-.679 1.032-1.434.83l-1.51-.402c-.755-.201-1.065-.553-.93-1.057l-2.265-.603c-.474 1.776.264 3.051 2.214 3.824l-.201.755 2.265.604.2-.755c2.077.3 3.385-.564 3.926-2.592.604-2.265-.227-3.699-2.491-4.303l-1.51-.402c-.755-.201-1.032-.68-.83-1.434.2-.755.679-1.032 1.434-.83l1.51.402c.754.201 1.065.553.93 1.056l2.265.604c.474-1.776-.264-3.051-2.214-3.824Zm-6.22 5.836c-.953-.938-1.194-2.288-.724-4.05.659-2.47 2.026-3.556 4.102-3.256l.226-.845 3.774 1.006-.225.846c.385.151.72.342 1.003.574l.052.014-.006.023c.474.407.943.963 1.407 1.669.692.863.762 2.33.21 4.398l-2.083-.556c.086.163.234.345.444.547.825 1.012 1.002 2.4.532 4.16-.658 2.471-2.026 3.557-4.102 3.257l-.225.845-3.775-1.006.226-.846a3.706 3.706 0 0 1-1.003-.574l-.053-.014.006-.023c-.474-.407-.92-.849-1.336-1.326-.739-1.092-.832-2.672-.28-4.74l2.082.555a3.257 3.257 0 0 1-.253-.658Zm16.412-3.12-1.51-.402c-2.265-.604-3.699.227-4.303 2.491-.228.856-.238 1.662-.03 2.418-.557.552-.95 1.256-1.177 2.112-.604 2.264.226 3.699 2.491 4.302l1.51.403c2.264.604 3.699-.227 4.302-2.491.229-.856.239-1.662.03-2.418.557-.552.95-1.256 1.178-2.112.604-2.264-.227-3.699-2.491-4.302ZM40.4 59.102c.755.2 1.032.679.83 1.434-.2.755-.679 1.032-1.433.83l-1.51-.402c-.755-.202-1.032-.68-.83-1.434.2-.755.679-1.032 1.434-.83l1.51.402Zm2.038-3.096c-.201.755-.68 1.032-1.434.831l-1.51-.402c-.755-.202-1.031-.68-.83-1.435.201-.755.68-1.031 1.434-.83l1.51.402c.755.202 1.032.68.83 1.434Zm-7.737 7.034c-.646-1.116-.734-2.554-.264-4.316.265-.996.618-1.71 1.056-2.143-.165-.594-.114-1.39.151-2.386.738-2.768 2.491-3.783 5.26-3.045l1.509.403c1.761.47 2.965 1.262 3.61 2.377.647 1.116.735 2.554.265 4.316-.265.996-.618 1.71-1.056 2.144.165.593.114 1.389-.151 2.385-.738 2.768-2.491 3.783-5.26 3.045l-1.509-.403c-1.761-.47-2.965-1.262-3.61-2.377Zm11.814 4.969 1.208-4.53-2.265-.603-1.207 4.529 2.264.604Zm-3.22-.05 1.61-6.04 3.774 1.007.83 1.434-1.61 6.04-3.774-1.007-.83-1.434Zm14.014-11.626-1.51-.403c-2.264-.604-3.698.227-4.302 2.492-.228.855-.238 1.661-.03 2.417-.557.553-.95 1.256-1.178 2.112-.604 2.265.227 3.699 2.492 4.302l1.51.403c2.264.604 3.698-.227 4.302-2.491.228-.856.238-1.662.03-2.418.557-.552.95-1.256 1.178-2.111.603-2.265-.227-3.7-2.492-4.303Zm-1.811 6.794c.755.201 1.032.68.83 1.434-.2.755-.679 1.032-1.434.83l-1.51-.402c-.755-.201-1.031-.68-.83-1.434.201-.755.68-1.032 1.434-.83l1.51.402Zm2.038-3.095c-.201.755-.68 1.031-1.434.83l-1.51-.402c-.755-.202-1.032-.68-.83-1.435.2-.755.679-1.031 1.434-.83l1.51.402c.754.202 1.031.68.83 1.435Zm-7.737 7.033c-.646-1.115-.734-2.554-.265-4.315.266-.997.618-1.711 1.057-2.144-.165-.594-.115-1.39.151-2.386.738-2.767 2.49-3.782 5.259-3.045l1.51.403c1.76.47 2.964 1.262 3.61 2.378.646 1.115.734 2.553.265 4.315-.266.996-.618 1.711-1.057 2.144.165.594.115 1.389-.15 2.385-.739 2.768-2.492 3.783-5.26 3.045l-1.51-.402c-1.76-.47-2.964-1.262-3.61-2.378Zm18.079-7.915-1.51-.402c-2.265-.604-3.699.227-4.303 2.491l-1.207 4.53c-.604 2.264.226 3.698 2.491 4.302l1.51.403c2.264.603 3.699-.227 4.302-2.492l1.208-4.529c.604-2.265-.227-3.699-2.491-4.303Zm.226 3.7-1.207 4.529c-.202.754-.68 1.031-1.434.83l-1.51-.403c-.755-.2-1.032-.679-.83-1.434l1.207-4.529c.201-.755.68-1.032 1.434-.83l1.51.402c.755.201 1.031.68.83 1.434Zm-3.195 4.403.755.201c.251.067.41-.025.478-.277l1.006-3.774c-.755-.201-1.233.075-1.434.83l-.805 3.02Zm-4.542 2.63c-.646-1.116-.734-2.554-.264-4.316l1.207-4.529c.738-2.768 2.491-3.783 5.26-3.045l1.509.403c1.761.47 2.965 1.262 3.61 2.377.647 1.116.735 2.554.265 4.316l-1.207 4.529c-.738 2.768-2.491 3.783-5.26 3.045l-1.509-.403c-1.761-.47-2.965-1.262-3.61-2.377Zm18.079-7.915-1.51-.402c-2.265-.604-3.699.226-4.302 2.49l-1.208 4.53c-.604 2.265.227 3.699 2.491 4.303l1.51.402c2.265.604 3.699-.226 4.303-2.491l1.207-4.53c.604-2.264-.226-3.698-2.491-4.302Zm.227 3.699-1.208 4.53c-.201.754-.68 1.03-1.434.83l-1.51-.403c-.755-.201-1.032-.68-.83-1.434l1.207-4.53c.202-.754.68-1.031 1.434-.83l1.51.403c.755.2 1.032.679.83 1.434Zm-3.196 4.404.755.2c.252.068.411-.024.478-.276l1.007-3.775c-.755-.2-1.233.076-1.435.83l-.805 3.02Zm-4.541 2.63c-.646-1.116-.735-2.555-.265-4.316l1.208-4.53c.738-2.767 2.49-3.782 5.258-3.044l1.51.402c1.762.47 2.965 1.262 3.611 2.378.646 1.115.734 2.554.265 4.315l-1.208 4.53c-.738 2.767-2.49 3.782-5.259 3.044l-1.51-.402c-1.76-.47-2.965-1.262-3.61-2.378Zm16.252 3.726 3.019-11.323-2.265-.604-3.018 11.323 2.264.604Zm-3.22-.05 3.42-12.833 3.775 1.006.83 1.434-3.42 12.833-3.775-1.006-.83-1.434Zm9.569-5.567 1.759 7.778 2.46.656 3.019-11.323-2.264-.604-1.82 6.825-1.758-7.779-2.461-.656-3.02 11.324 2.266.603 1.819-6.824Zm1.104 8.412-.61-2.685-.93 3.488-3.774-1.007-.83-1.434 3.421-12.833 3.669.978.83 1.434.61 2.686.93-3.488 3.775 1.007.83 1.434-3.421 12.833-3.67-.978-.83-1.435Zm12.234-9.675-3.019 11.324 2.265.603 1.207-4.529 2.642.704c2.265.604 3.699-.226 4.303-2.49.604-2.266-.227-3.7-2.491-4.303l-4.907-1.309Zm1.661 2.869 2.642.704c.755.201 1.031.68.83 1.434-.201.755-.679 1.032-1.434.83l-2.642-.704.604-2.264Zm-5.636 9.008 3.421-12.833 5.662 1.51c1.761.47 2.965 1.262 3.611 2.377.646 1.116.734 2.554.264 4.316-.738 2.767-2.491 3.782-5.259 3.044l-1.887-.503-1.207 4.53-3.775-1.007-.83-1.434Zm14.543-9.06-3.019 11.324 2.265.604 1.208-4.53 1.056.282 1.412 5.228 2.612.696-1.426-5.296c1.729-.056 2.826-.955 3.29-2.696.604-2.265-.226-3.7-2.491-4.303l-4.907-1.308Zm1.661 2.87 2.642.704c.755.201 1.032.68.831 1.434-.202.755-.68 1.032-1.435.83l-2.642-.704.604-2.265Zm7.058.062c.646 1.115.734 2.554.265 4.315-.564 2.114-1.575 3.197-3.034 3.25l1.527 5.647-4.363-1.164-.831-1.434-.727-2.7-.926 3.472-3.774-1.006-.831-1.434 3.422-12.833 5.661 1.51c1.762.469 2.965 1.261 3.611 2.377Zm1.095 11.814 3.019-11.324-2.264-.603-3.019 11.323 2.264.604Zm-3.22-.05 3.421-12.834 3.774 1.007.831 1.434-3.422 12.833-3.774-1.006-.83-1.435Zm12.527-7.172-7.065 7.82 7.949 2.119.604-2.265-4.25-1.133 7.065-7.82-7.949-2.118-.604 2.264 4.25 1.133Zm-8.504 8.244 6.182-6.841-2.053-.548-.831-1.434 1.007-3.775 9.941 2.651.831 1.434-6.182 6.842 2.053.547.831 1.434-1.007 3.775-9.942-2.65-.83-1.435Zm14.899.738.604-2.265 4.529 1.208.604-2.265-4.53-1.207.604-2.265 5.284 1.409.604-2.265-7.549-2.012-3.019 11.323 7.549 2.012.604-2.264-5.284-1.409Zm6.592-3.498.931 1.057-1.006 3.774.553.956-1.006 3.775-9.058-2.415-.831-1.434 3.422-12.834 9.058 2.416.831 1.434-1.007 3.774-1.887-.503Zm8.278-2.24-1.509-.402c-2.265-.604-3.699.226-4.303 2.49-.604 2.266.227 3.7 2.491 4.304l1.51.402c.755.201 1.032.68.831 1.434-.202.755-.68 1.032-1.435.83l-1.509-.402c-.755-.201-1.066-.553-.932-1.056l-2.264-.604c-.537 2.013.327 3.321 2.592 3.925l1.51.402c2.264.604 3.698-.226 4.302-2.49.604-2.266-.227-3.7-2.491-4.304l-1.51-.402c-.755-.201-1.032-.68-.83-1.434.201-.755.679-1.032 1.434-.83l1.51.402c.754.201 1.065.553.931 1.057l2.264.603c.537-2.013-.327-3.321-2.592-3.925Zm-5.844 5.937c-.951-.938-1.193-2.288-.723-4.05.738-2.767 2.491-3.782 5.259-3.044l1.51.402c1.686.45 2.866 1.25 3.54 2.4.681 1.146.759 2.703.234 4.67l-2.083-.555c.751.74 1.152 1.52 1.203 2.342.05.822-.025 1.61-.227 2.365-.737 2.768-2.49 3.783-5.258 3.046l-1.51-.403c-1.686-.45-2.869-1.25-3.548-2.401-.676-1.145-.751-2.702-.227-4.67l2.084.556a3.3 3.3 0 0 1-.254-.658Z"/></g><defs><clipPath id="a"><path fill="#fff" d="M.4.91h200v138H.4z"/></clipPath></defs></svg>
